proprietary/assets/icons/personen/persoon-kaal-in-gestreept-shirt-torso.svg

<svg enable-background="new 0 0 64 64" height="64" viewBox="0 0 64 64" width="64" xmlns="http://www.w3.org/2000/svg"><path d="m0 0h64v64h-64z" fill="none"/><path d="m52.6 44.1c-2.3-2.5-9-4.7-11.7-5.5-.1-1-.3-2.1-.4-3.2 1.9-2.2 3.1-4.5 3.4-6.9 1.3-1.2 2.1-3.2 2.1-5.6 0-.9 0-3.4-1.9-4.6v-1.1c0-7-6.2-11.2-12.1-11.2s-12.1 4.2-12.1 11.3v1.1c-1.9 1.2-1.9 3.7-1.9 4.6 0 2.4.7 4.3 2.1 5.5.4 2.4 1.5 4.7 3.4 6.9-.1 1.1-.3 2.2-.4 3.2-2.7.8-9.4 3-11.7 5.5-2.9 3.1-4.4 14.9-4.4 14.9h50s-1.5-11.8-4.4-14.9zm-.5 5.9h-16.2c.9-.8 1.9-1.8 2.8-3h12.3c.3.7.7 1.8 1.1 3zm-11.1-8.2c1.9.6 4.1 1.4 5.9 2.2h-6.4c.2-.7.4-1.4.5-2.2zm-18.1-15c-1.6-.5-1.9-2.5-1.9-3.8s.2-2 .7-2.2c.7-.3 1.2.2 1.3.3v-3.8c0-5.7 5.2-8.3 9.1-8.3s9.1 2.5 9.1 8.3v3.8c.1 0 .6-.6 1.3-.3.3.2.5.9.5 2.2s-.3 3.3-1.9 3.8c0 3.8-2.7 6.9-5.3 9.2-.8.7-2.2 1-3.7 1-1.1 0-2.1-.2-2.9-.5.6.9 1.7 2.1 3.6 2.6 2.5.7 4.4-.5 5.1-1 0 0 .2 1.6.3 2.2.4 3.5-3.7 7.3-6.1 9-2.4-1.7-6.5-5.5-6.1-9 .1-.6.6-4.6.7-5.8-2.1-2.1-3.8-4.6-3.8-7.7zm.1 15c.1.8.3 1.5.6 2.2h-6.4c1.7-.8 3.8-1.6 5.8-2.2zm-10 5.2h12.3c.9 1.2 1.9 2.2 2.8 3h-16.2c.4-1.2.8-2.3 1.1-3zm25 9h-27.5l.6-3h26.9zm10-3h4.9l.6 3h-5.5z"/></svg>

<?xml version="1.0" encoding="utf-8"?>
<!-- Generator: Adobe Illustrator 22.1.0, SVG Export Plug-In . SVG Version: 6.00 Build 0)  -->
<!DOCTYPE svg PUBLIC "-//W3C//DTD SVG 1.1//EN" "http://www.w3.org/Graphics/SVG/1.1/DTD/svg11.dtd">
<svg version="1.1" xmlns="http://www.w3.org/2000/svg" xmlns:xlink="http://www.w3.org/1999/xlink" x="0px" y="0px" width="64px"
	 height="64px" viewBox="0 0 64 64" style="enable-background:new 0 0 64 64;" xml:space="preserve">
<style type="text/css">
	.st0{fill:none;}
</style>
<g id="Box">
	<rect class="st0" width="64" height="64"/>
</g>
<g id="Icon">
	<path d="M52.6,44.1c-2.3-2.5-9-4.7-11.7-5.5c-0.1-1-0.3-2.1-0.4-3.2c1.9-2.2,3.1-4.5,3.4-6.9c1.3-1.2,2.1-3.2,2.1-5.6
		c0-0.9,0-3.4-1.9-4.6v-1.1C44.1,10.2,37.9,6,32,6s-12.1,4.2-12.1,11.3v1.1C18,19.6,18,22.1,18,23c0,2.4,0.7,4.3,2.1,5.5
		c0.4,2.4,1.5,4.7,3.4,6.9c-0.1,1.1-0.3,2.2-0.4,3.2c-2.7,0.8-9.4,3-11.7,5.5C8.5,47.2,7,59,7,59h50C57,59,55.5,47.2,52.6,44.1z
		 M52.1,50H35.9c0.9-0.8,1.9-1.8,2.8-3H51C51.3,47.7,51.7,48.8,52.1,50z M41,41.8c1.9,0.6,4.1,1.4,5.9,2.2h-6.4
		C40.7,43.3,40.9,42.6,41,41.8z M22.9,26.8C21.3,26.3,21,24.3,21,23c0-1.3,0.2-2,0.7-2.2c0.7-0.3,1.2,0.2,1.3,0.3v-3.8
		c0-5.7,5.2-8.3,9.1-8.3s9.1,2.5,9.1,8.3v3.8c0.1,0,0.6-0.6,1.3-0.3C42.8,21,43,21.7,43,23c0,1.3-0.3,3.3-1.9,3.8
		c0,3.8-2.7,6.9-5.3,9.2c-0.8,0.7-2.2,1-3.7,1c-1.1,0-2.1-0.2-2.9-0.5c0.6,0.9,1.7,2.1,3.6,2.6c2.5,0.7,4.4-0.5,5.1-1
		c0,0,0.2,1.6,0.3,2.2c0.4,3.5-3.7,7.3-6.1,9c-2.4-1.7-6.5-5.5-6.1-9c0.1-0.6,0.6-4.6,0.7-5.8C24.6,32.4,22.9,29.9,22.9,26.8z
		 M23,41.8c0.1,0.8,0.3,1.5,0.6,2.2h-6.4C18.9,43.2,21,42.4,23,41.8z M13,47h12.3c0.9,1.2,1.9,2.2,2.8,3H11.9
		C12.3,48.8,12.7,47.7,13,47z M38,56H10.5c0.2-1,0.4-2,0.6-3H38V56z M48,53h4.9c0.2,1,0.4,2,0.6,3H48V53z"/>
</g>
</svg>
